!!!OTL: WENN MICH NUR MEIN ROESCHEN LIEBT
!!!ARE: Europa, Mitteleuropa, Deutschland
!!!SCT: F0131
!!!YEM: Copyright 1995, estate of Helmut Schaffrath.
**kern
*ICvox
*Ivox
*M2/4
*k[b-]
*F:
=1
{8f
8c
8c
8f
=2
8g
16g
16b-
4a}
=3
{16b-
16dd
16a
16cc
16g
16b-
16d
16g
=4
4e
16f
16cc
16b-
16g}
=5
{8f
8c
8c
8f
=6
8g
16g
16b-
4a}
=7
{16b-
16dd
16a
16cc
16g
16b-
16d
16g
=8
4e
16f
8.r}
=9
{8c
8c
8cc
8c
=10
8c
8c
4b-}
=11
{8a
16g
16f
16dd
16b-
16g
16f
=12
8.e
16d
4c}
=13
{8f
8c
8c
8f
=14
8g
16g
16b-
4a}
=15
{16b-
16d
16a
16c
16g
16b-
16d
16g
=16
4e
16f
8.r}
==
!!!AGN: Liebes - Lied
!!!ONB: ESAC (Essen Associative Code) Database: FINK
!!!AMT: simple duple
!!!AIN: vox
!!!EED: Helmut Schaffrath
!!!EEV: 1.0
*-
